**kern	**silbe	**kern	**silbe	**harmony	**chordsym	**phrase	**timestamp	**leadinstrument
*ICvox	*	*ICvox	*	*M4/4	*M4/4	*	*	*
*	*	*	*	*D:	*D:	*	*	*
=1	=1	=1	=1	=1	=1	=1	=1	=1
*d:	*	*d:	*	*	*	*	*	*
*M4/4	*	*M4/4	*	*	*	*	*	*
*clefC3	*	*clefC3	*	*	*	*	*	*
1r	.	1r	.	1r;	r	.	0	r
=2	=2	=2	=2	=2	=2	=2	=2	=2
1r	.	1r	.	1r;	r	.	0.033	r
=3	=3	=3	=3	=3	=3	=3	=3	=3
*	*	*	*	*>A_intro	*>A_intro	*>A_intro	*>A_intro	*>A_intro
4r	.	1r	.	1DM	D:5 (D A)	newline	0.131	r
8B	Ba-	.	.	.	.	.	.	.
8A	-by,	.	.	.	.	.	.	.
8c	I	.	.	.	.	.	.	.
4d	feel	.	.	.	.	.	.	.
[8f	good,	.	.	.	.	.	.	.
=4	=4	=4	=4	=4	=4	=4	=4	=4
8f]	_	1r	.	1CM	C:5 (C G)	.	.	r
8r	_	.	.	.	.	.	.	.
4r	.	.	.	.	.	.	.	.
2r	.	.	.	.	.	.	.	.
=5	=5	=5	=5	=5	=5	=5	=5	=5
4r	.	1r	.	1AM	A:5 (A E)	.	.	r
8d	from	.	.	.	.	.	.	.
8d	the	.	.	.	.	.	.	.
8f	mo-	.	.	.	.	.	.	.
8d	-ment	.	.	.	.	.	.	.
8d	I	.	.	.	.	.	.	.
[8d	rise!	.	.	.	.	.	.	.
=6	=6	=6	=6	=6	=6	=6	=6	=6
4d]	_	1r	.	1r;	r	.	.	r
4r	_	.	.	.	.	.	.	.
2r	.	.	.	.	.	.	.	.
=7	=7	=7	=7	=7	=7	=7	=7	=7
*	*	*	*	*>B_chorus	*>B_chorus	*>B_chorus	*>B_chorus	*>B_chorus
4r	.	1r	.	4CM	C:5 (C G)	newline	21.094	voice
8cq	_	.	.	.	.	.	.	.
4d	Feel	.	.	4DM	D:5 (D A)	.	.	voice
8cq	_	.	.	.	.	.	.	.
4d	good	.	.	4FM	F:5 (F C)	.	.	voice
8dq	_	.	.	.	.	.	.	.
4A	from	.	.	4CM	C:5 (C G)	.	.	voice
=8	=8	=8	=8	=8	=8	=8	=8	=8
1r	.	2c f	Mor-	1DM	D:5 (D A)	.	.	voice
.	.	2d g	-ning!	.	.	.	.	.
=9	=9	=9	=9	=9	=9	=9	=9	=9
4r	.	2d f	_	4CM	C:5 (C G)	.	.	voice
8d	'till	.	.	4DM	D:5 (D A)	.	.	voice
8d	the	.	.	.	.	.	.	.
8e	end	2c# e	_	4FM	F:5 (F C)	.	.	voice
8d	of	.	.	.	.	.	.	.
8d	the	.	.	4CM	C:5 (C G)	.	.	voice
8cq	_	.	.	.	.	.	.	.
[8d	day!	.	.	.	.	.	.	.
=10	=10	=10	=10	=10	=10	=10	=10	=10
4d]	_	1r	.	1DM	D:5 (D A)	.	.	voice
4r	_	.	.	.	.	.	.	.
2r	.	.	.	.	.	.	.	.
=11	=11	=11	=11	=11	=11	=11	=11	=11
4r	.	4r	.	2FM	F:5 (F C)	newline	27.409	voice
8d	'Till	8c	'Till	.	.	.	.	.
8d	the	8d	the	.	.	.	.	.
8e	end	8e	end	2GM	G:5 (G D)	.	.	voice
8d	of	8d	of	.	.	.	.	.
8d	the	8d	the	.	.	.	.	.
8cq	_	.	.	.	.	.	.	.
[8d	day!	8c	day!	.	.	.	.	.
=12	=12	=12	=12	=12	=12	=12	=12	=12
4d]	_	4d	_	2B-M	B-:5 (B- F)	.	.	voice
4r	_	4r	_	.	.	.	.	.
2r	.	2r	.	2AM	A:5 (A E)	.	.	voice
=13	=13	=13	=13	=13	=13	=13	=13	=13
2r	.	1r	.	4CM	C:5 (C G)	newline	30.46	voice
.	.	.	.	4DM	D:5 (D A)	.	.	voice
4d	Yeah!	.	.	4FM	F:5 (F C)	.	.	voice
4r	_	.	.	4CM	C:5 (C G)	.	.	voice
=14	=14	=14	=14	=14	=14	=14	=14	=14
8d	You	1r	.	1DM	D:5 (D A)	.	.	voice
4d	and	.	.	.	.	.	.	.
[8d	me,	.	.	.	.	.	.	.
4d]	_	.	.	.	.	.	.	.
4r	_	.	.	.	.	.	.	.
=15	=15	=15	=15	=15	=15	=15	=15	=15
2r	.	1r	.	4CM	C:5 (C G)	.	.	voice
.	.	.	.	4DM	D:5 (D A)	.	.	voice
8f	we	.	.	4FM	F:5 (F C)	.	.	voice
8d	live	.	.	.	.	.	.	.
8c	this	.	.	4CM	C:5 (C G)	.	.	voice
8c	life	.	.	.	.	.	.	.
=16	=16	=16	=16	=16	=16	=16	=16	=16
4d	_	1r	.	2DM	D:5 (D A)	.	.	voice
4d	uh!	.	.	.	.	.	.	.
2r	_	.	.	2CM	C:5 (C G)	.	.	voice
=17	=17	=17	=17	=17	=17	=17	=17	=17
*	*	*	*	*>B_chorus	*>B_chorus	*>B_chorus	*>B_chorus	*>B_chorus
2r	.	1r	.	2DM	D:5 (D A)	newline	36.567	voice
4r	.	.	.	2CM	C:5 (C G)	.	.	voice
8r	.	.	.	.	.	.	.	.
8c	From	.	.	.	.	.	.	.
=18	=18	=18	=18	=18	=18	=18	=18	=18
8cq	_	.	.	.	.	.	.	.
4d	when	1r	.	2FM	F:5 (F C)	.	.	voice
4d	we	.	.	.	.	.	.	.
4d	get	.	.	2CM	C:5 (C G)	.	.	voice
4d	up,	.	.	.	.	.	.	.
=19	=19	=19	=19	=19	=19	=19	=19	=19
4r	_	1r	.	2DM	D:5 (D A)	.	.	voice
8c	'till	.	.	.	.	.	.	.
8c	we	.	.	.	.	.	.	.
8d	go	.	.	2CM	C:5 (C G)	.	.	voice
8c	sleep	.	.	.	.	.	.	.
8G	at	.	.	.	.	.	.	.
8Gq	_	.	.	.	.	.	.	.
[8A	night!	.	.	.	.	.	.	.
=20	=20	=20	=20	=20	=20	=20	=20	=20
1A]	_	[1A	Night!	2FM	F:5 (F C)	.	.	voice
.	.	.	.	2CM	C:5 (C G)	.	.	voice
=21	=21	=21	=21	=21	=21	=21	=21	=21
[2c#	_	2A_	_	1DM	D:5 (D A)	newline	42.69	voice
8c#]	_	8A]	_	.	.	.	.	.
8r	_	8r	_	.	.	.	.	.
4r	.	4r	.	.	.	.	.	.
=22	=22	=22	=22	=22	=22	=22	=22	=22
4d	You	1r	.	1CM	C:5 (C G)	.	.	voice
4d	and	.	.	.	.	.	.	.
8d	me,	.	.	.	.	.	.	.
4d	we're	.	.	.	.	.	.	.
8dq	_	.	.	.	.	.	.	.
[8e	free!	.	.	.	.	.	.	.
=23	=23	=23	=23	=23	=23	=23	=23	=23
4.e]	_	1r	.	1FM	F:5 (F C)	.	.	voice
8r	_	.	.	.	.	.	.	.
2r	.	.	.	.	.	.	.	.
=24	=24	=24	=24	=24	=24	=24	=24	=24
4f	We	1r	.	1AM	A:5 (A E)	.	.	voice
4f	do	.	.	.	.	.	.	.
4f	as	.	.	.	.	.	.	.
4f	we	.	.	.	.	.	.	.
=25	=25	=25	=25	=25	=25	=25	=25	=25
2e	please,	1r	.	1DM	D:5 (D A)	newline	48.727	voice
8cq	_	.	.	.	.	.	.	.
16e	yeah,	.	.	.	.	.	.	.
16d	_	.	.	.	.	.	.	.
8c	_	.	.	.	.	.	.	.
4c	from	.	.	.	.	.	.	.
=26	=26	=26	=26	=26	=26	=26	=26	=26
1r	.	2c f	Mor-	1CM	C:5 (C G)	.	.	voice
.	.	2d g	-ning!	.	.	.	.	.
=27	=27	=27	=27	=27	=27	=27	=27	=27
4r	.	2d f	_	1DM	D:5 (D A)	.	.	voice
8d	'till	.	.	.	.	.	.	.
8d	the	.	.	.	.	.	.	.
8e	end	2c# e	_	.	.	.	.	.
8d	of	.	.	.	.	.	.	.
8d	the	.	.	.	.	.	.	.
8cq	_	.	.	.	.	.	.	.
[8d	day!	.	.	.	.	.	.	.
=28	=28	=28	=28	=28	=28	=28	=28	=28
4d]	_	1r	.	2CM	C:5 (C G)	.	.	voice
4r	_	.	.	.	.	.	.	.
2r	.	.	.	2B-M	B-:5 (B- F)	.	.	voice
=29	=29	=29	=29	=29	=29	=29	=29	=29
4r	.	4r	.	2FM	F:5 (F C)	newline	54.803	voice
8d	'Till	8c	'Till	.	.	.	.	.
8d	the	8d	the	.	.	.	.	.
8f	end	8f	end	2GM	G:5 (G D)	.	.	voice
8d	of	8d	of	.	.	.	.	.
8d	the	8d	the	.	.	.	.	.
8cq	_	.	.	.	.	.	.	.
[8d	day!	8c	day!	.	.	.	.	.
=30	=30	=30	=30	=30	=30	=30	=30	=30
4d]	_	4d	_	2B-M	B-:5 (B- F)	.	.	voice
4r	_	4r	_	.	.	.	.	.
2r	.	2r	.	2AM	A:5 (A E)	.	.	voice
=31	=31	=31	=31	=31	=31	=31	=31	=31
2r	.	1r	.	4CM	C:5 (C G)	newline	57.824	guitar
.	.	.	.	4DM	D:5 (D A)	.	.	guitar
16d	Yeah!	.	.	4FM	F:5 (F C)	.	.	guitar
16A	_	.	.	.	.	.	.	.
8r	_	.	.	.	.	.	.	.
4r	.	.	.	4CM	C:5 (C G)	.	.	guitar
=32	=32	=32	=32	=32	=32	=32	=32	=32
8d	I	1r	.	1DM	D:5 (D A)	.	.	guitar
8d	get	.	.	.	.	.	.	.
8d	up,	.	.	.	.	.	.	.
8r	_	.	.	.	.	.	.	.
2r	.	.	.	.	.	.	.	.
=33	=33	=33	=33	=33	=33	=33	=33	=33
4r	.	1r	.	4CM	C:5 (C G)	.	.	guitar
8r	.	.	.	4DM	D:5 (D A)	.	.	guitar
8c	and	.	.	.	.	.	.	.
8f	I	.	.	4FM	F:5 (F C)	.	.	guitar
8d	see	.	.	.	.	.	.	.
8c	the	.	.	4CM	C:5 (C G)	.	.	guitar
[8d	sun	.	.	.	.	.	.	.
=34	=34	=34	=34	=34	=34	=34	=34	=34
8d]	_	1r	.	2DM	D:5 (D A)	.	.	guitar
8d	up!	.	.	.	.	.	.	.
4r	_	.	.	.	.	.	.	.
2r	.	.	.	2CM	C:5 (C G)	.	.	guitar
=35	=35	=35	=35	=35	=35	=35	=35	=35
*	*	*	*	*>B_chorus	*>B_chorus	*>B_chorus	*>B_chorus	*>B_chorus
2r	.	1r	.	2DM	D:5 (D A)	newline	63.886	voice
4r	.	.	.	2CM	C:5 (C G)	.	.	voice
8r	.	.	.	.	.	.	.	.
8c	And	.	.	.	.	.	.	.
=36	=36	=36	=36	=36	=36	=36	=36	=36
8cq	_	.	.	.	.	.	.	.
4d	I	1r	.	2FM	F:5 (F C)	.	.	voice
8cq	_	.	.	.	.	.	.	.
4d	feel	.	.	.	.	.	.	.
8cq	_	.	.	.	.	.	.	.
4d	good,	.	.	2CM	C:5 (C G)	.	.	voice
8cq	_	.	.	.	.	.	.	.
8d	yeah,	.	.	.	.	.	.	.
8c	_	.	.	.	.	.	.	.
=37	=37	=37	=37	=37	=37	=37	=37	=37
4r	_	1r	.	2DM	D:5 (D A)	.	.	voice
8c	cuz	.	.	.	.	.	.	.
8c	my	.	.	.	.	.	.	.
8d	life	.	.	2CM	C:5 (C G)	.	.	voice
8c	has	.	.	.	.	.	.	.
8G	be-	.	.	.	.	.	.	.
8Gq	_	.	.	.	.	.	.	.
[8A	-gun!	.	.	.	.	.	.	.
=38	=38	=38	=38	=38	=38	=38	=38	=38
1A]	_	[1A	Gun!	2FM	F:5 (F C)	.	.	voice
.	.	.	.	2CM	C:5 (C G)	.	.	voice
=39	=39	=39	=39	=39	=39	=39	=39	=39
2.c#	_	2.A]	_	1DM	D:5 (D A)	newline	69.859	voice
4r	_	4r	_	.	.	.	.	.
=40	=40	=40	=40	=40	=40	=40	=40	=40
4d	You	1f	Ah!	1CM	C:5 (C G)	.	.	voice
4d	and	.	.	.	.	.	.	.
8d	me,	.	.	.	.	.	.	.
4d	we're	.	.	.	.	.	.	.
8dq	_	.	.	.	.	.	.	.
[8e	free!	.	.	.	.	.	.	.
=41	=41	=41	=41	=41	=41	=41	=41	=41
4.e]	_	1e	_	1FM	F:5 (F C)	.	.	voice
8r	_	.	.	.	.	.	.	.
2r	.	.	.	.	.	.	.	.
=42	=42	=42	=42	=42	=42	=42	=42	=42
4f	We	1f	_	1AM	A:5 (A E)	.	.	voice
4f	do	.	.	.	.	.	.	.
4f	as	.	.	.	.	.	.	.
4f	we	.	.	.	.	.	.	.
=43	=43	=43	=43	=43	=43	=43	=43	=43
4.e	please,	[2e [g	_	1DM	D:5 (D A)	newline	75.843	voice
8d	y-	.	.	.	.	.	.	.
16e	-yeah,	8e] g]	_	.	.	.	.	.
16d	_	.	.	.	.	.	.	.
8c	_	8r	_	.	.	.	.	.
8d	from	4r	.	.	.	.	.	.
8c	_	.	.	.	.	.	.	.
=44	=44	=44	=44	=44	=44	=44	=44	=44
1r	.	2c f	Mor-	1CM	C:5 (C G)	.	.	voice
.	.	2d g	-ning!	.	.	.	.	.
=45	=45	=45	=45	=45	=45	=45	=45	=45
4r	.	2d f	_	1DM	D:5 (D A)	.	.	voice
8d	'Till	.	.	.	.	.	.	.
8d	the	.	.	.	.	.	.	.
8e	end	2c# e	_	.	.	.	.	.
8d	of	.	.	.	.	.	.	.
8d	the	.	.	.	.	.	.	.
8cq	_	.	.	.	.	.	.	.
[8d	day!	.	.	.	.	.	.	.
=46	=46	=46	=46	=46	=46	=46	=46	=46
4d]	_	1r	.	2CM	C:5 (C G)	.	.	voice
4r	_	.	.	.	.	.	.	.
2r	.	.	.	2B-M	B-:5 (B- F)	.	.	voice
=47	=47	=47	=47	=47	=47	=47	=47	=47
4r	.	1r	.	2FM	F:5 (F C)	newline	81.879	voice
8d	'Till	.	.	.	.	.	.	.
8d	the	.	.	.	.	.	.	.
8f	end	.	.	2GM	G:5 (G D)	.	.	voice
8d	of	.	.	.	.	.	.	.
8d	the	.	.	.	.	.	.	.
8cq	_	.	.	.	.	.	.	.
[8d	day!	.	.	.	.	.	.	.
=48	=48	=48	=48	=48	=48	=48	=48	=48
4d]	_	1r	.	2B-M	B-:5 (B- F)	.	.	voice
4r	_	.	.	.	.	.	.	.
2r	.	.	.	2AM	A:5 (A E)	.	.	voice
=49	=49	=49	=49	=49	=49	=49	=49	=49
4r	.	1r	.	1DM	D:5 (D A)	newline	84.843	guitar
8d	'Till	.	.	.	.	.	.	.
8d	the	.	.	.	.	.	.	.
8f	end	.	.	.	.	.	.	.
8d	of	.	.	.	.	.	.	.
8d	the	.	.	.	.	.	.	.
8cq	_	.	.	.	.	.	.	.
[8d	day!	.	.	.	.	.	.	.
=50	=50	=50	=50	=50	=50	=50	=50	=50
4d]	_	1r	.	1CM	C:5 (C G)	.	.	guitar
4r	_	.	.	.	.	.	.	.
2r	.	.	.	.	.	.	.	.
=51	=51	=51	=51	=51	=51	=51	=51	=51
4r	.	4r	.	1DM	D:5 (D A)	.	.	guitar
8d	'Till	8f	'Till	.	.	.	.	.
8d	the	8f	the	.	.	.	.	.
8f	end	8a	end	.	.	.	.	.
8d	of	8f	of	.	.	.	.	.
8d	the	8f	the	.	.	.	.	.
8cq	_	8eq	_	.	.	.	.	.
[8d	day!	[8f	day!	.	.	.	.	.
=52	=52	=52	=52	=52	=52	=52	=52	=52
4d]	_	4f]	_	1CM	C:5 (C G)	.	.	guitar
4r	_	4r	_	.	.	.	.	.
2r	.	2r	.	.	.	.	.	.
=53	=53	=53	=53	=53	=53	=53	=53	=53
4r	.	1r	.	1DM	D:5 (D A)	newline	90.791	guitar
8d	'Till	.	.	.	.	.	.	.
8d	the	.	.	.	.	.	.	.
8a	end	.	.	.	.	.	.	.
8g	of	.	.	.	.	.	.	.
8g	the	.	.	.	.	.	.	.
8eq	_	.	.	.	.	.	.	.
[8f	day!	.	.	.	.	.	.	.
=54	=54	=54	=54	=54	=54	=54	=54	=54
4f]	_	1r	.	1CM	C:5 (C G)	.	.	guitar
16r	.	.	.	.	.	.	.	.
8.e	(Grunts)	.	.	.	.	.	.	.
4f	_	.	.	.	.	.	.	.
4r	.	.	.	.	.	.	.	.
=55	=55	=55	=55	=55	=55	=55	=55	=55
1r	.	1r	.	1DM	D:5 (D A)	.	.	guitar
=56	=56	=56	=56	=56	=56	=56	=56	=56
1r	.	1r	.	1CM	C:5 (C G)	.	.	guitar
=57	=57	=57	=57	=57	=57	=57	=57	=57
*	*	*	*	*>B_solo	*>B_solo	*>B_solo	*>B_solo	*>B_solo
1r	.	1r	.	2DM	D:5 (D A)	newline	96.735	guitar
.	.	.	.	2CM	C:5 (C G)	.	.	guitar
=58	=58	=58	=58	=58	=58	=58	=58	=58
1r	.	1r	.	2FM	F:5 (F C)	.	.	guitar
.	.	.	.	2CM	C:5 (C G)	.	.	guitar
=59	=59	=59	=59	=59	=59	=59	=59	=59
1r	.	1r	.	2DM	D:5 (D A)	.	.	guitar
.	.	.	.	2CM	C:5 (C G)	.	.	guitar
=60	=60	=60	=60	=60	=60	=60	=60	=60
1r	.	1r	.	2FM	F:5 (F C)	.	.	guitar
.	.	.	.	2CM	C:5 (C G)	.	.	guitar
=61	=61	=61	=61	=61	=61	=61	=61	=61
1r	.	1r	.	1DM	D:5 (D A)	newline	102.701	guitar
=62	=62	=62	=62	=62	=62	=62	=62	=62
8d	You	1f	Ah!	1CM	C:5 (C G)	.	.	guitar
8c#	_	.	.	.	.	.	.	.
8d	and	.	.	.	.	.	.	.
8c#	_	.	.	.	.	.	.	.
8d	me,	.	.	.	.	.	.	.
4d	we're	.	.	.	.	.	.	.
8dq	_	.	.	.	.	.	.	.
[8e	free!	.	.	.	.	.	.	.
=63	=63	=63	=63	=63	=63	=63	=63	=63
4.e]	_	1e	_	1FM	F:5 (F C)	.	.	guitar
8r	_	.	.	.	.	.	.	.
2r	.	.	.	.	.	.	.	.
=64	=64	=64	=64	=64	=64	=64	=64	=64
4f	We	1f	_	1AM	A:5 (A E)	.	.	guitar
4f	do	.	.	.	.	.	.	.
4f	as	.	.	.	.	.	.	.
4f	we	.	.	.	.	.	.	.
=65	=65	=65	=65	=65	=65	=65	=65	=65
4.e	please,	[2e [g	_	1DM	D:5 (D A)	newline	108.541	voice
8d	y-	.	.	.	.	.	.	.
16e	-yeah,	8e] g]	_	.	.	.	.	.
16d	_	.	.	.	.	.	.	.
8c	_	8r	_	.	.	.	.	.
8d	from	4r	.	.	.	.	.	.
8c	_	.	.	.	.	.	.	.
=66	=66	=66	=66	=66	=66	=66	=66	=66
1r	.	2c f	Mor-	1CM	C:5 (C G)	.	.	voice
.	.	2d g	-ning!	.	.	.	.	.
=67	=67	=67	=67	=67	=67	=67	=67	=67
4r	.	2d f	_	1DM	D:5 (D A)	.	.	voice
8d	'Till	.	.	.	.	.	.	.
8d	the	.	.	.	.	.	.	.
8e	end	2c# e	_	.	.	.	.	.
8d	of	.	.	.	.	.	.	.
8d	the	.	.	.	.	.	.	.
8cq	_	.	.	.	.	.	.	.
[8d	day!	.	.	.	.	.	.	.
=68	=68	=68	=68	=68	=68	=68	=68	=68
4d]	_	1r	.	2CM	C:5 (C G)	.	.	voice
4r	_	.	.	.	.	.	.	.
2r	.	.	.	2B-M	B-:5 (B- F)	.	.	voice
=69	=69	=69	=69	=69	=69	=69	=69	=69
4r	.	1r	.	2FM	F:5 (F C)	newline	114.587	voice
8d	'Till	.	.	.	.	.	.	.
8d	the	.	.	.	.	.	.	.
8f	end	.	.	2GM	G:5 (G D)	.	.	voice
8d	of	.	.	.	.	.	.	.
8d	the	.	.	.	.	.	.	.
8cq	_	.	.	.	.	.	.	.
[8d	day!	.	.	.	.	.	.	.
=70	=70	=70	=70	=70	=70	=70	=70	=70
4d]	_	1d	Ah!	2B-M	B-:5 (B- F)	.	.	voice
4r	_	.	.	.	.	.	.	.
2r	.	.	.	2AM	A:5 (A E)	.	.	voice
=71	=71	=71	=71	=71	=71	=71	=71	=71
4r	.	1e	_	1DM	D:5 (D A)	newline	117.618	voice
8d	'Till	.	.	.	.	.	.	.
8d	the	.	.	.	.	.	.	.
8f a	end	.	.	.	.	.	.	.
8d g	of	.	.	.	.	.	.	.
8d g	the	.	.	.	.	.	.	.
8eq	_	.	.	.	.	.	.	.
[8f	day!	.	.	.	.	.	.	.
=72	=72	=72	=72	=72	=72	=72	=72	=72
4f]	_	1d	_	1CM	C:5 (C G)	.	.	voice
4r	_	.	.	.	.	.	.	.
2r	.	.	.	.	.	.	.	.
=73	=73	=73	=73	=73	=73	=73	=73	=73
4r	.	1c e	_	1DM	D:5 (D A)	.	.	voice
8d	'Till	.	.	.	.	.	.	.
8d	the	.	.	.	.	.	.	.
8f	end	.	.	.	.	.	.	.
8d	of	.	.	.	.	.	.	.
8d	the	.	.	.	.	.	.	.
[8f	day!	.	.	.	.	.	.	.
=74	=74	=74	=74	=74	=74	=74	=74	=74
4f]	_	1d f	_	1CM	C:5 (C G)	.	.	voice
4r	_	.	.	.	.	.	.	.
2r	.	.	.	.	.	.	.	.
=75	=75	=75	=75	=75	=75	=75	=75	=75
4r	.	1c e	_	1DM	D:5 (D A)	newline	123.585	voice
8d	'Till	.	.	.	.	.	.	.
8d	the	.	.	.	.	.	.	.
8f g	end	.	.	.	.	.	.	.
8d g	of	.	.	.	.	.	.	.
8d	the	.	.	.	.	.	.	.
[8f	day!	.	.	.	.	.	.	.
=76	=76	=76	=76	=76	=76	=76	=76	=76
4f]	_	1d f	_	1CM	C:5 (C G)	.	.	voice
4r	_	.	.	.	.	.	.	.
2r	.	.	.	.	.	.	.	.
=77	=77	=77	=77	=77	=77	=77	=77	=77
4r	.	1c e	_	1DM	D:5 (D A)	.	.	voice
8d	'Till	.	.	.	.	.	.	.
8d	the	.	.	.	.	.	.	.
8f	end	.	.	.	.	.	.	.
8d	of	.	.	.	.	.	.	.
8d	the	.	.	.	.	.	.	.
8cq	_	.	.	.	.	.	.	.
[8d	day	.	.	.	.	.	.	.
=78	=78	=78	=78	=78	=78	=78	=78	=78
1d_	_	1d f	_	1CM	C:5 (C G)	.	.	voice
=79	=79	=79	=79	=79	=79	=79	=79	=79
1d]	_	1r	.	1DM	D:5 (D A)	newline	129.419	voice
*-	*-	*-	*-	*	*	*	*
=77	=77	=77	=77	=77
1CM	C:5 (C G)	.	.	voice
=78	=78	=78	=78	=78
1DM	D:5 (D A)	.	.	voice
=79	=79	=79	=79	=79
1CM	C:5 (C G)	.	.	voice
=80	=80	=80	=80	=80
1DM	D:5 (D A)	newline	135.403	voice
=81	=81	=81	=81	=81
1CM	C:5 (C G)	.	.	voice
=82	=82	=82	=82	=82
2DM	D:5 (D A)	.	.	voice
2CM	C:5 (C G)	.	.	voice
=83	=83	=83	=83	=83
*M6/4	*M6/4	*M6/4	*M6/4	*M6/4
4AM	A:5 (A E)	.	.	voice
4B-M	B-:5 (B- F)	.	.	voice
4AM	A:5 (A E)	.	.	voice
4B-M	B-:5 (B- F)	.	.	voice
4AM	A:5 (A E)	.	.	voice
4B-M	B-:5 (B- F)	.	.	voice
=84	=84	=84	=84	=84
4AM	A:5 (A E)	.	.	voice
4B-M	B-:5 (B- F)	.	.	voice
4AM	A:5 (A E)	.	.	voice
4B-M	B-:5 (B- F)	.	.	voice
4AM	A:5 (A E)	.	.	voice
4B-M	B-:5 (B- F)	.	.	voice
=85	=85	=85	=85	=85
*M4/4	*M4/4	*M4/4	*M4/4	*M4/4
1AM	A:maj (A C# E)	newline	143.837	guitar
1r;	r	.	150.824	r
1r;	r	.	157.309	r
*-	*-	*-	*-	*-
!!!BillboardChartDate: 1966/04/23
!!!BillboardPeak: 50
!!!BillboardWeeksOnChart: 8
!!!COC: The Kinks
!!!ENC: Nathaniel Condit-Schultz
!!!EST: Awating manual error checking and editing.
!!!OTL: Till The End Of The Day
!!!RDF**chordsym: original McGill chord annotation + (implied pitch class set, with bass pitch in first position)
!!!RDF**harmony: **recip + pitch class of root + harmonic quality
!!!RDF**leadinstrument: original McGill primary instrumentation annotation
!!!RDF**phrase: newline = linebreak in original McGill transcription
!!!RDF**timestamp: McGill audio timestamp in seconds
!!!RDT: 2017/01/12/
!!!SampleActualRank: 61
!!!SampleID#: 0904
!!!SampleTargetRank: 60
